X:21
M:C
L:1/8
Q:1/4=160
K:C
(3cdc G2 (3cdc G2 | (3cdc G2 c>cB>c | (3cdc G2 (3cdc G2 | (3cdc G2 d>dc>d |!
e2e2 (3FGF E2 | (3FGF E2 (3FGF E2 | E>FE>F E>DC>B, |]!
|:A,<A, z B, C>A,B,>C | D<D z E F>DE>F | E>^GB>c d>BG>B |1A>cB>^G A>GC>B, :|2A>AE>C A,4 |]

